docs/icon/dash_cost.svg

<?xml version="1.0" encoding="UTF-8" standalone="no"?>
<svg
   xmlns:dc="http://purl.org/dc/elements/1.1/"
   xmlns:cc="http://creativecommons.org/ns#"
   xmlns:rdf="http://www.w3.org/1999/02/22-rdf-syntax-ns#"
   xmlns:svg="http://www.w3.org/2000/svg"
   xmlns="http://www.w3.org/2000/svg"
   xmlns:sodipodi="http://sodipodi.sourceforge.net/DTD/sodipodi-0.dtd"
   xmlns:inkscape="http://www.inkscape.org/namespaces/inkscape"
   id="svg8"
   version="1.1"
   viewBox="0 0 256 256"
   height="967.55908"
   width="967.55908"
   sodipodi:docname="dash_cost.svg"
   inkscape:version="0.92.5 (2060ec1f9f, 2020-04-08)">
  <sodipodi:namedview
     pagecolor="#ffffff"
     bordercolor="#666666"
     borderopacity="1"
     objecttolerance="10"
     gridtolerance="10"
     guidetolerance="10"
     inkscape:pageopacity="0"
     inkscape:pageshadow="2"
     inkscape:window-width="833"
     inkscape:window-height="1044"
     id="namedview7"
     showgrid="false"
     inkscape:pagecheckerboard="true"
     inkscape:zoom="0.24391275"
     inkscape:cx="-24.598962"
     inkscape:cy="315.68664"
     inkscape:window-x="0"
     inkscape:window-y="17"
     inkscape:window-maximized="0"
     inkscape:current-layer="layer1" />
  <defs
     id="defs2" />
  <metadata
     id="metadata5">
    <rdf:RDF>
      <cc:Work
         rdf:about="">
        <dc:format>image/svg+xml</dc:format>
        <dc:type
           rdf:resource="http://purl.org/dc/dcmitype/StillImage" />
        <dc:title />
      </cc:Work>
    </rdf:RDF>
  </metadata>
  <g
     transform="translate(0,-41)"
     id="layer1">
    <path
       id="path819-7-3-6"
       d="M 263.5293,47.558594 45.714844,195.03711 272.60547,542.18164 c -47.92915,295.11061 -125.47331,236.06898 -95.29492,363.02539 80.84471,-60.55361 86.15278,-67.55042 211.62109,-154.89062 11.99583,-34.63708 24.19474,-81.07037 35.23242,-146.59571 L 190.00977,245.45508 335.65234,146.8418 Z m 83.94922,0 v 63.529296 l 46.06445,-3.44336 32.75391,-22.177733 18.16601,-12.296875 21.13086,29.085938 367.43164,-27.470704 z m 138.57031,82.855466 38.23633,52.63477 385.88281,-28.85156 z m -52.48828,4.9043 -181.17383,122.67187 219.49414,335.83204 -1.41016,8.67968 c -24.31317,149.70165 -57.67743,213.57476 -79.60742,252.14453 -10.96501,19.28489 -17.72736,30.86554 -20.52148,43.39649 -1.41577,6.34938 -2.01387,13.71338 -1.38672,23.23242 59.13928,-44.94595 83.77443,-64.93 243.05469,-174.84766 102.32658,-70.6145 145.0293,-99.79571 160.07031,-112.97265 7.52062,-6.58847 6.61534,-6.24225 7.16015,-7.96485 0.25399,-0.80311 1.99349,-7.11905 2.73829,-10.54882 z m 110.03711,74.3125 38.27734,52.69141 337.36914,-28.71289 z m 62.46875,85.99219 38.2832,52.69922 288.50781,-28.49415 z"
       style="fill:#000000;fill-opacity:1;stroke:none;stroke-width:45.35433197;stroke-linecap:butt;stroke-linejoin:miter;stroke-miterlimit:4;stroke-dasharray:none;stroke-opacity:1"
       inkscape:connector-curvature="0"
       transform="matrix(0.26458333,0,0,0.26458333,0,41)" />
  </g>
</svg>

<?xml version="1.0" encoding="UTF-8" standalone="no"?>
<svg
   xmlns:dc="http://purl.org/dc/elements/1.1/"
   xmlns:cc="http://creativecommons.org/ns#"
   xmlns:rdf="http://www.w3.org/1999/02/22-rdf-syntax-ns#"
   xmlns:svg="http://www.w3.org/2000/svg"
   xmlns="http://www.w3.org/2000/svg"
   xmlns:sodipodi="http://sodipodi.sourceforge.net/DTD/sodipodi-0.dtd"
   xmlns:inkscape="http://www.inkscape.org/namespaces/inkscape"
   id="svg8"
   version="1.1"
   viewBox="0 0 256 256"
   height="967.55908"
   width="967.55908"
   sodipodi:docname="dash_cost.svg"
   inkscape:version="0.92.5 (2060ec1f9f, 2020-04-08)">
  <sodipodi:namedview
     pagecolor="#ffffff"
     bordercolor="#666666"
     borderopacity="1"
     objecttolerance="10"
     gridtolerance="10"
     guidetolerance="10"
     inkscape:pageopacity="0"
     inkscape:pageshadow="2"
     inkscape:window-width="1548"
     inkscape:window-height="1044"
     id="namedview7"
     showgrid="false"
     inkscape:zoom="0.24391275"
     inkscape:cx="-340.28561"
     inkscape:cy="483.77954"
     inkscape:window-x="0"
     inkscape:window-y="17"
     inkscape:window-maximized="0"
     inkscape:current-layer="svg8"
     inkscape:pagecheckerboard="true" />
  <defs
     id="defs2" />
  <metadata
     id="metadata5">
    <rdf:RDF>
      <cc:Work
         rdf:about="">
        <dc:format>image/svg+xml</dc:format>
        <dc:type
           rdf:resource="http://purl.org/dc/dcmitype/StillImage" />
        <dc:title></dc:title>
      </cc:Work>
    </rdf:RDF>
  </metadata>
  <g
     transform="translate(0,-41)"
     id="layer1"
     style="fill:#ffffff;fill-opacity:1;stroke:none;stroke-opacity:1;stroke-width:7.93749978;stroke-miterlimit:4;stroke-dasharray:none">
    <path
       id="path819-7-3-6"
       transform="matrix(0.26458333,0,0,0.26458333,0,41)"
       d="M 263.5293 47.558594 L 45.714844 195.03711 L 272.60547 542.18164 C 224.67632 837.29225 147.13216 778.25062 177.31055 905.20703 C 258.15526 844.65342 263.46333 837.65661 388.93164 750.31641 C 400.92747 715.67933 413.12638 669.24604 424.16406 603.7207 L 190.00977 245.45508 L 335.65234 146.8418 L 263.5293 47.558594 z M 347.47852 47.558594 L 347.47852 111.08789 L 393.54297 107.64453 L 426.29688 85.466797 L 444.46289 73.169922 L 465.59375 102.25586 L 833.02539 74.785156 L 347.47852 47.558594 z M 486.04883 130.41406 L 524.28516 183.04883 L 910.16797 154.19727 L 486.04883 130.41406 z M 433.56055 135.31836 L 252.38672 257.99023 L 471.88086 593.82227 L 470.4707 602.50195 C 446.15753 752.2036 412.79327 816.07671 390.86328 854.64648 C 379.89827 873.93137 373.13592 885.51202 370.3418 898.04297 C 368.92603 904.39235 368.32793 911.75635 368.95508 921.27539 C 428.09436 876.32944 452.72951 856.34539 612.00977 746.42773 C 714.33635 675.81323 757.03907 646.63202 772.08008 633.45508 C 779.6007 626.86661 778.69542 627.21283 779.24023 625.49023 C 779.49422 624.68712 781.23372 618.37118 781.97852 614.94141 L 433.56055 135.31836 z M 543.59766 209.63086 L 581.875 262.32227 L 919.24414 233.60938 L 543.59766 209.63086 z M 606.06641 295.62305 L 644.34961 348.32227 L 932.85742 319.82812 L 606.06641 295.62305 z "
       style="fill:#ffffff;fill-opacity:1;stroke:none;stroke-width:29.99999954;stroke-linecap:butt;stroke-linejoin:miter;stroke-miterlimit:4;stroke-dasharray:none;stroke-opacity:1" />
  </g>
</svg>
